src/assets/img/partner/fraunhofer_logo.svg

<?xml version="1.0" encoding="UTF-8"?>
<svg width="198px" height="33px" viewBox="0 0 198 33" version="1.1" xmlns="http://www.w3.org/2000/svg" xmlns:xlink="http://www.w3.org/1999/xlink">
    <!-- Generator: Sketch 63.1 (92452) - https://sketch.com -->
    <title>cidBE80FD6D-761D-43B7-9C10-7EF9314E0907</title>
    <desc>Created with Sketch.</desc>
    <g id="Visual-design" stroke="none" stroke-width="1" fill="none" fill-rule="evenodd">
        <g id="01-Corona_lp" transform="translate(-95.000000, -5592.000000)" fill-rule="nonzero">
            <g id="cidBE80FD6D-761D-43B7-9C10-7EF9314E0907" transform="translate(95.000000, 5592.000000)">
                <g id="Group">
                    <path d="M0,32.1066892 C7.60297981,28.1927793 18.7402595,21.8641495 31.9603892,12.6125997 L31.9603892,9.50718976 C20.3249195,17.1194096 8.49386979,23.2316694 0,27.2749393 L0,32.1066892 Z" id="Path" fill="#179C7D"></path>
                    <path d="M0,22.8335794 C8.46537979,19.3847495 20.2971995,14.0563497 31.9603892,7.11941982 L31.9603892,5.58634986 C20.9986695,11.0240897 9.60959976,14.4274896 0,16.5496096 L0,22.8335794 Z" id="Path" fill="#179C7D"></path>
                    <path d="M31.9603892,32.1220892 L31.9603892,16.5026396 C24.6838894,22.6364594 17.4774596,27.9479193 11.4244897,32.1220892 L31.9603892,32.1220892 Z" id="Path" fill="#179C7D"></path>
                    <path d="M7.33809982,32.1220892 C13.0861497,28.7094493 20.0631195,24.2565394 27.0115993,19.0521095 C28.6324493,17.8370496 30.2879492,16.5857996 31.9611592,15.2921996 L31.9611592,13.3564197 C21.6762695,21.0664295 11.1796297,27.4936193 2.97912993,32.1220892 L7.33809982,32.1220892 Z" id="Path" fill="#179C7D"></path>
                    <path d="M0,14.2773396 C9.34779977,12.6333897 20.7846095,9.67581976 31.9603892,4.36435989 L31.9603892,2.62338994 C20.6983695,7.67920981 9.42633977,9.82288976 0,10.5859597 L0,14.2773396 Z" id="Path" fill="#179C7D"></path>
                    <path d="M0,0 L0,8.94739978 C0.698389983,8.90427978 1.40986997,8.85422978 2.13674995,8.79801978 C9.90835975,8.2004998 20.5143395,6.82681983 31.9603892,1.87802995 L31.9603892,0 L0,0 Z" id="Path" fill="#179C7D"></path>
                    <path d="M0,8.94739978 L0,10.5859597 C9.42633977,9.82288976 20.6983695,7.67920981 31.9603892,2.62338994 L31.9603892,1.87802995 C20.5151095,6.82681983 9.90835975,8.2004998 2.13674995,8.79801978 C1.40986997,8.85499978 0.698389983,8.90427978 0,8.94739978 Z" id="Path" fill="#FFFFFF"></path>
                    <path d="M0,16.5496096 C9.60959976,14.4274896 20.9986695,11.0240897 31.9603892,5.58634986 L31.9603892,4.36512989 C20.7846095,9.67581976 9.34779977,12.6333897 0,14.2773396 L0,16.5496096 Z" id="Path" fill="#FFFFFF"></path>
                    <path d="M0,27.2749393 C8.49386979,23.2316694 20.3249195,17.1194096 31.9603892,9.50718976 L31.9603892,7.11941982 C20.2971995,14.0563497 8.46537979,19.3847495 0,22.8335794 L0,27.2749393 Z" id="Path" fill="#FFFFFF"></path>
                    <path d="M7.33809982,32.1220892 L11.4252597,32.1220892 C17.4782296,27.9486893 24.6846594,22.6364594 31.9611592,16.5026396 L31.9611592,15.2921996 C30.2879492,16.5857996 28.6332193,17.8370496 27.0115993,19.0521095 C20.0631195,24.2565394 13.0861497,28.7094493 7.33809982,32.1220892 Z" id="Path" fill="#FFFFFF"></path>
                    <path d="M0,32.1220892 L2.97912993,32.1220892 C11.1796297,27.4936193 21.6762695,21.0671995 31.9603892,13.3564197 L31.9603892,12.6125997 C18.7402595,21.8649195 7.60297981,28.1927793 0,32.1066892 L0,32.1220892 Z" id="Path" fill="#FFFFFF"></path>
                </g>
                <path d="M187.823785,32.1066892 L191.934045,32.1066892 L191.934045,26.3055093 C191.934045,24.0363194 191.934045,19.8613795 195.275845,19.8613795 C196.012735,19.8613795 196.751165,19.9830395 197.119995,20.1994095 L197.119995,16.0583496 C196.687255,15.9351496 196.258365,15.9351496 195.861045,15.9351496 C193.406285,15.9351496 191.719215,18.4222495 191.535955,19.8914095 L191.472815,19.8914095 L191.472815,16.3047496 L187.824555,16.3047496 L187.824555,32.1066892 L187.823785,32.1066892 Z M183.711985,27.8732293 C182.176605,28.7310093 180.460276,29.4694393 178.463666,29.4694393 C175.921896,29.4694393 174.141656,28.0272293 173.953776,25.4769894 L184.875455,25.4769894 C184.875455,19.9545495 183.221495,15.9359196 177.358716,15.9359196 C172.453046,15.9359196 170.028316,19.7089195 170.028316,24.2811794 C170.028316,29.4694393 173.062886,32.4747492 178.281946,32.4747492 C180.492616,32.4747492 182.205865,32.0458592 183.712755,31.2157992 L183.712755,27.8732293 L183.711985,27.8732293 Z M173.953006,22.6549394 C174.140886,20.5374395 175.302046,18.9427695 177.604346,18.9427695 C179.906646,18.9427695 180.829106,20.6614095 180.949226,22.6549394 L173.953006,22.6549394 L173.953006,22.6549394 Z M160.822196,32.1066892 L164.932456,32.1066892 L164.932456,19.3092895 L168.520656,19.3092895 L168.520656,16.3039796 L164.932456,16.3039796 L164.932456,14.3397096 C164.932456,13.1130997 165.364426,11.9149797 166.745806,11.9149797 C167.634386,11.9149797 168.156446,12.2537797 168.520656,12.4693797 L168.860226,9.06289978 C168.064816,8.87886978 166.897496,8.72486978 165.854146,8.72486978 C162.600896,8.72486978 160.822196,10.9339997 160.822196,14.0940797 L160.822196,16.3039796 L157.786086,16.3039796 L157.786086,19.3092895 L160.822196,19.3092895 L160.822196,32.1066892 Z M144.470476,23.8199494 C144.470476,21.4575895 145.757916,19.1252595 148.429046,19.1252595 C151.130206,19.1252595 152.416106,21.3967595 152.416106,23.8199494 C152.416106,26.4602793 151.590666,29.2830993 148.429046,29.2830993 C145.295916,29.2823293 144.470476,26.4279393 144.470476,23.8199494 M140.172337,24.3135194 C140.172337,28.8511293 143.213066,32.4739792 148.429046,32.4739792 C153.674286,32.4739792 156.711166,28.8511293 156.711166,24.3135194 C156.711166,19.0959995 153.126046,15.9359195 148.429046,15.9359195 C143.765156,15.9351496 140.172337,19.0959995 140.172337,24.3135194 M123.053697,32.1066892 L127.167037,32.1066892 L127.167037,24.3720394 C127.167037,22.3484794 127.810757,19.1252595 130.788347,19.1252595 C133.426367,19.1252595 133.454857,21.7347895 133.454857,23.6667194 L133.454857,32.1066892 L137.563577,32.1066892 L137.563577,22.1328795 C137.563577,18.5739395 135.938107,15.9351496 132.197447,15.9351496 C130.049917,15.9351496 128.270447,16.9176696 127.231717,18.4515095 L127.167037,18.4515095 L127.167037,9.09446977 L123.053697,9.09446977 L123.053697,32.1066892 Z M104.310357,32.1066892 L108.419077,32.1066892 L108.419077,24.3720394 C108.419077,22.3484794 109.065877,19.1252595 112.040387,19.1252595 C114.678407,19.1252595 114.708437,21.7347895 114.708437,23.6667194 L114.708437,32.1066892 L118.823317,32.1066892 L118.823317,22.1328795 C118.823317,18.5739395 117.194767,15.9351496 113.452567,15.9351496 C111.305037,15.9351496 109.554827,16.6420096 108.267387,18.4515095 L108.202707,18.4515095 L108.202707,16.3039796 L104.310357,16.3039796 L104.310357,32.1066892 Z M100.073818,16.3047496 L95.9604776,16.3047496 L95.9604776,24.0370894 C95.9604776,26.0598794 95.3167576,29.2823293 92.3407077,29.2823293 C89.7019178,29.2823293 89.6711178,26.6727993 89.6711178,24.7400994 L89.6711178,16.3047496 L85.5600879,16.3047496 L85.5600879,26.2762493 C85.5600879,29.8344193 87.1863278,32.4739792 90.9292977,32.4739792 C93.0760577,32.4739792 94.8570677,31.4937692 96.1137076,29.9576193 L96.1760776,29.9576193 L96.1760776,32.1066892 L100.073048,32.1066892 L100.073048,16.3047496 L100.073818,16.3047496 Z M72.0288782,27.5344293 C72.0288782,25.1089294 74.7592981,24.8024694 76.6011381,24.8024694 L78.3813781,24.8024694 C78.3813781,26.0313894 78.1973481,27.1640593 77.5212881,28.0564893 C76.8775681,28.9111893 75.8973581,29.4686693 74.6384082,29.4686693 C73.1661682,29.4686693 72.0288782,28.8826993 72.0288782,27.5344293 M69.9437183,20.6614095 C71.3243282,19.6165195 73.0722282,18.9427695 74.8224381,18.9427695 C77.2448581,18.9427695 78.3806081,19.8013195 78.3806081,22.3492494 L76.1098781,22.3492494 C74.3927782,22.3492494 72.3669082,22.5001694 70.8022682,23.2686294 C69.2368583,24.0370894 68.1034183,25.4169294 68.1034183,27.7815993 C68.1034183,30.7853692 70.8330682,32.4739792 73.6243182,32.4739792 C75.4961881,32.4739792 77.5528581,31.4937692 78.5022681,29.7443293 L78.5646381,29.7443293 C78.5969781,30.2332793 78.5969781,31.2735492 78.748668,32.1066892 L82.368438,32.1066892 C82.276808,30.8762292 82.215978,29.7712793 82.183638,28.5754693 C82.153608,27.4104593 82.122808,26.2138794 82.122808,24.6176694 L82.122808,22.5925694 C82.122808,17.9286796 80.128508,15.9351496 75.3121581,15.9351496 C73.5627182,15.9351496 71.4159582,16.3971496 69.8197483,17.1324996 L69.9437183,20.6614095 Z M57.5798286,32.1066892 L61.6908585,32.1066892 L61.6908585,26.3055093 C61.6908585,24.0363194 61.6908585,19.8613795 65.0341984,19.8613795 C65.7710884,19.8613795 66.5072084,19.9830395 66.8768083,20.1994095 L66.8768083,16.0583496 C66.4471484,15.9351496 66.0182584,15.9351496 65.6186284,15.9351496 C63.1646384,15.9351496 61.4767985,18.4222495 61.2927685,19.8914095 L61.2311685,19.8914095 L61.2311685,16.3047496 L57.5798286,16.3047496 L57.5798286,32.1066892 Z M42.7303789,32.1066892 L47.0262088,32.1066892 L47.0262088,22.7149994 L54.2672887,22.7149994 L54.2672887,19.3400895 L47.0262088,19.3400895 L47.0262088,14.0640497 L54.6353486,14.0640497 L54.6353486,10.6899097 L42.7303789,10.6899097 L42.7303789,32.1066892 Z" id="Shape" fill="#000000"></path>
            </g>
        </g>
    </g>
</svg>

<?xml version="1.0" encoding="UTF-8"?>
<svg version="1.1" viewBox="0 0 198 33" 
    xmlns="http://www.w3.org/2000/svg">
    <g fill="none" fill-rule="evenodd">
        <g transform="translate(-95 -5592)" fill-rule="nonzero">
            <g transform="translate(95 5592)">
                <path id="Path" d="m0 32.107c7.603-3.9139 18.74-10.243 31.96-19.494v-3.1054c-11.635 7.6122-23.467 13.724-31.96 17.768v4.8317z" fill="#179C7D"/>
                <path id="Path" d="m0 22.834c8.4654-3.4488 20.297-8.7772 31.96-15.714v-1.5331c-10.962 5.4377-22.351 8.8411-31.96 10.963v6.284z" fill="#179C7D"/>
                <path id="Path" d="m31.96 32.122v-15.619c-7.2765 6.1338-14.483 11.445-20.536 15.619h20.536z" fill="#179C7D"/>
                <path id="Path" d="m7.3381 32.122c5.748-3.4126 12.725-7.8655 19.673-13.07 1.6208-1.2151 3.2763-2.4663 4.9496-3.7599v-1.9358c-10.285 7.71-20.782 14.137-28.982 18.766h4.359z" fill="#179C7D"/>
                <path id="Path" d="m0 14.277c9.3478-1.6439 20.785-4.6015 31.96-9.913v-1.741c-11.262 5.0558-22.534 7.1995-31.96 7.9626v3.6914z" fill="#179C7D"/>
                <path id="Path" d="m0 0v8.9474c0.69839-0.04312 1.4099-0.09317 2.1367-0.14938 7.7716-0.59752 18.378-1.9712 29.824-6.92v-1.878h-31.96z" fill="#179C7D"/>
                <path id="Path" d="m0 8.9474v1.6386c9.4263-0.76307 20.698-2.9067 31.96-7.9626v-0.74536c-11.445 4.9488-22.052 6.3225-29.824 6.92-0.72688 0.05698-1.4384 0.10626-2.1367 0.14938z" fill="#fff"/>
                <path id="Path" d="m0 16.55c9.6096-2.1221 20.999-5.5255 31.96-10.963v-1.2212c-11.176 5.3107-22.613 8.2683-31.96 9.9122v2.2723z" fill="#fff"/>
                <path id="Path" d="m0 27.275c8.4939-4.0433 20.325-10.156 31.96-17.768v-2.3878c-11.663 6.9369-23.495 12.265-31.96 15.714v4.4414z" fill="#fff"/>
                <path id="a" d="m7.3381 32.122h4.0872c6.053-4.1734 13.259-9.4856 20.536-15.619v-1.2104c-1.6732 1.2936-3.3279 2.5448-4.9496 3.7599-6.9485 5.2044-13.925 9.6573-19.673 13.07z" fill="#fff"/>
                <path d="m0 32.122h2.9791c8.2005-4.6285 18.697-11.055 28.981-18.766v-0.74382c-13.22 9.2523-24.357 15.58-31.96 19.494v0.0154z" fill="#fff"/>
                <path d="m187.82 32.107h4.1103v-5.8012c0-2.2692 0-6.4441 3.3418-6.4441 0.73689 0 1.4753 0.12166 1.8442 0.33803v-4.1411c-0.43274-0.1232-0.86163-0.1232-1.259-0.1232-2.4548 0-4.1418 2.4871-4.3251 3.9563h-0.06314v-3.5867h-3.6483v15.802h-7.7e-4zm-4.1118-4.2335c-1.5354 0.85778-3.2517 1.5962-5.2483 1.5962-2.5418 0-4.322-1.4422-4.5099-3.9924h10.922c0-5.5224-1.654-9.5411-7.5167-9.5411-4.9057 0-7.3304 3.773-7.3304 8.3453 0 5.1883 3.0346 8.1936 8.2536 8.1936 2.2107 0 3.9239-0.42889 5.4308-1.259v-3.3426h-7.7e-4zm-9.759-5.2183c0.18788-2.1175 1.349-3.7122 3.6513-3.7122s3.2248 1.7186 3.3449 3.7122h-6.9962zm-13.131 9.4517h4.1103v-12.797h3.5882v-3.0053h-3.5882v-1.9643c0-1.2266 0.43197-2.4247 1.8134-2.4247 0.88858 0 1.4106 0.3388 1.7748 0.5544l0.33957-3.4065c-0.79541-0.18403-1.9627-0.33803-3.0061-0.33803-3.2532 0-5.032 2.2091-5.032 5.3692v2.2099h-3.0361v3.0053h3.0361v12.797zm-16.352-8.2867c0-2.3624 1.2874-4.6947 3.9586-4.6947 2.7012 0 3.9871 2.2715 3.9871 4.6947 0 2.6403-0.82544 5.4631-3.9871 5.4631-3.1331-7.7e-4 -3.9586-2.8552-3.9586-5.4631m-4.2981 0.49357c0 4.5376 3.0407 8.1605 8.2567 8.1605 5.2452 0 8.2821-3.6228 8.2821-8.1605 0-5.2175-3.5851-8.3776-8.2821-8.3776-4.6639-7.699e-4 -8.2567 3.1601-8.2567 8.3776m-17.119 7.7932h4.1133v-7.7346c0-2.0236 0.64372-5.2468 3.6213-5.2468 2.638 0 2.6665 2.6095 2.6665 4.5415v8.44h4.1087v-9.9738c0-3.5589-1.6255-6.1977-5.3661-6.1977-2.1475 0-3.927 0.98252-4.9657 2.5164h-0.06468v-9.357h-4.1133v23.012zm-18.743 0h4.1087v-7.7346c0-2.0236 0.6468-5.2468 3.6213-5.2468 2.638 0 2.668 2.6095 2.668 4.5415v8.44h4.1149v-9.9738c0-3.5589-1.6286-6.1977-5.3708-6.1977-2.1475 0-3.8977 0.70686-5.1852 2.5164h-0.06468v-2.1475h-3.8924v15.803zm-4.2365-15.802h-4.1133v7.7323c0 2.0228-0.64372 5.2452-3.6198 5.2452-2.6388 0-2.6696-2.6095-2.6696-4.5422v-8.4353h-4.111v9.9715c0 3.5582 1.6262 6.1977 5.3692 6.1977 2.1468 0 3.9278-0.98021 5.1844-2.5164h0.06237v2.1491h3.897v-15.802h7.7e-4zm-28.045 11.23c0-2.4255 2.7304-2.732 4.5723-2.732h1.7802c0 1.2289-0.18403 2.3616-0.86009 3.254-0.64372 0.8547-1.6239 1.4122-2.8829 1.4122-1.4722 0-2.6095-0.58597-2.6095-1.9342m-2.0852-6.873c1.3806-1.0449 3.1285-1.7186 4.8787-1.7186 2.4224 0 3.5582 0.85855 3.5582 3.4065h-2.2707c-1.7171 0-3.743 0.15092-5.3076 0.91938-1.5654 0.76846-2.6988 2.1483-2.6988 4.513 0 3.0038 2.7296 4.6924 5.5209 4.6924 1.8719 0 3.9285-0.98021 4.8779-2.7296h0.06237c0.03234 0.48895 0.03234 1.5292 0.18403 2.3624h3.6198c-0.09163-1.2305-0.15246-2.3354-0.1848-3.5312-0.03003-1.165-0.06083-2.3616-0.06083-3.9578v-2.0251c0-4.6639-1.9943-6.6574-6.8106-6.6574-1.7494 0-3.8962 0.462-5.4924 1.1974l0.12397 3.5289zm-12.364 11.445h4.111v-5.8012c0-2.2692 0-6.4441 3.3433-6.4441 0.73689 0 1.473 0.12166 1.8426 0.33803v-4.1411c-0.42966-0.1232-0.85855-0.1232-1.2582-0.1232-2.454 0-4.1418 2.4871-4.3259 3.9563h-0.0616v-3.5867h-3.6513v15.802zm-14.849 0h4.2958v-9.3917h7.2411v-3.3749h-7.2411v-5.276h7.6091v-3.3741h-11.905v21.417z" fill="#000"/>
            </g>
        </g>
    </g>
</svg>
